assets/img/topbar-icons.svg

<svg fill="none" height="422" viewBox="0 0 2074 422" width="2074" xmlns="http://www.w3.org/2000/svg"><g fill="#fff"><g clip-rule="evenodd" fill-rule="evenodd"><path d="m911.315 12.3171h-301.505c-32.936 0-59.98 27.0444-59.98 59.9797v289.7232c0 32.935 27.044 59.98 59.98 59.98h301.505c32.935 0 59.979-27.045 59.979-59.98v-289.7232c0-32.9353-27.044-59.9797-59.979-59.9797zm-80.063 103.3579h-31.864c-10.978 1.607-18.743 6.426-20.082 21.421v19.547h47.394v52.75h-47.93v164.141h-73.1v-164.141h-44.182v-52.75h44.182v-14.459l-.268-15.531c-2.41-34.5414 23.564-58.9082 46.056-62.6569v-.2678h1.071c1.071-.2677 1.874-.2678 2.678-.2678v.2678h76.045z"/><path d="m1360.89 160.124h29.46c6.42 0 11.78-5.355 11.78-11.781v-28.116c0-6.426-5.36-11.782-11.78-11.782h-29.46c-6.42 0-11.78 5.356-11.78 11.782v28.116c0 6.426 5.36 11.781 11.78 11.781z"/><path d="m1452.2 0h-301.5c-32.94 0-59.98 27.0445-59.98 59.9797v289.7233c0 32.935 27.04 59.98 59.98 59.98h301.5c32.94 0 59.98-27.045 59.98-59.98v-289.7233c0-32.9352-27.04-59.9797-59.98-59.9797zm-20.62 306.86c0 18.476-14.99 33.471-33.47 33.471h-193.86c-18.47 0-33.47-14.995-33.47-33.471v-193.863c0-18.4754 15-33.4703 33.47-33.4703h193.86c18.48 0 33.47 14.9949 33.47 33.4703z"/><path d="m1301.45 260.001c28.92 0 52.48-22.76 52.48-50.608 0-28.115-23.56-50.607-52.48-50.607s-52.21 22.76-52.21 50.607c0 27.848 23.29 50.608 52.21 50.608z"/><path d="m1382.58 212.071c0 43.378-36.41 78.456-81.13 78.456s-81.13-35.078-81.13-78.456c0-7.765 1.07-15.262 3.48-22.492h-23.83v110.052c0 5.623 4.55 10.443 10.44 10.443h181.55c5.62 0 10.44-4.552 10.44-10.443v-110.052h-23.03c2.14 7.23 3.21 14.727 3.21 22.492z"/></g><path d="m1807.26 236.973v-16.333h-54.36v16.333h18.21v99.074h17.41v-99.074zm31.6 99.342v-9.372c-6.16 6.962-12.05 10.443-17.68 10.443-5.08 0-8.56-2.142-9.9-6.427-.81-2.677-1.34-6.694-1.34-12.852v-68.013h15.53v63.193c0 3.748 0 5.623.27 6.158.26 2.41 1.6 3.749 3.75 3.749 3.21 0 6.42-2.41 9.9-7.23v-65.602h15.53v85.953zm59.17-24.635c0 7.765-2.41 11.514-6.69 11.514-2.68 0-5.09-1.339-7.77-3.749v-52.482c2.68-2.677 5.09-3.749 7.77-3.749 4.55 0 6.69 4.017 6.69 11.782zm15.53-1.339v-34.274c0-8.033-.53-13.924-1.6-17.405-2.14-6.426-6.16-9.639-12.59-9.639-5.62 0-10.98 3.213-16.06 9.372v-37.755h-15.53v115.407h15.53v-8.301c5.08 6.427 10.44 9.64 16.06 9.64 6.16 0 10.45-3.213 12.59-9.64 1.07-3.749 1.6-9.372 1.6-17.405zm43.11-27.312h-15.53v-8.033c0-8.033 2.68-12.049 7.77-12.049s7.76 4.016 7.76 12.049zm15.54 25.706v-2.142h-15.8c0 6.158-.27 9.639-.27 10.443-.8 4.284-3.21 6.158-6.96 6.158-5.36 0-8.04-4.016-8.04-12.049v-15.263h31.07v-17.673c0-9.104-1.61-15.798-4.82-20.35-4.29-5.891-10.45-8.836-18.48-8.836s-14.19 2.945-18.74 8.836c-3.22 4.284-4.82 10.979-4.82 20.35v30.258c0 9.104 1.6 15.798 5.08 20.082 4.56 5.891 10.71 8.837 18.75 8.837 8.03 0 14.46-2.946 18.74-9.372 1.88-2.678 3.21-5.891 3.75-9.372.54-1.339.54-4.82.54-9.907z"/><path clip-rule="evenodd" d="m1859.48 162.267c5.08 0 7.49-4.017 7.49-12.05v-36.416c0-8.033-2.41-12.05-7.49-12.05-5.09 0-7.5 4.017-7.5 12.05v36.416c0 8.033 2.41 12.05 7.5 12.05z" fill-rule="evenodd"/><path clip-rule="evenodd" d="m2013.44 9.63965h-301.5c-32.94 0-59.98 27.04435-59.98 59.97965v289.4557c0 32.935 27.04 59.98 59.98 59.98h301.5c32.94 0 59.98-27.045 59.98-59.98v-289.4557c0-32.9353-27.04-59.97965-59.98-59.97965zm-118.08 78.45565h15.79v63.9957c0 3.749 0 5.623.27 6.159.27 2.41 1.61 3.749 3.75 3.749 3.21 0 6.43-2.41 9.91-7.498v-66.4057h15.8v86.7567h-15.8v-9.372c-6.16 7.229-12.32 10.71-17.94 10.71-5.09 0-8.57-2.142-10.18-6.426-.8-2.678-1.34-6.694-1.34-12.853v-68.8157zm-59.18 28.9187c0-9.104 1.61-16.066 4.82-20.3503 4.28-5.8908 10.44-8.8362 18.21-8.8362 7.76 0 13.92 2.9454 18.21 8.8362 3.21 4.2843 4.82 11.2463 4.82 20.3503v30.258c0 9.104-1.61 16.066-4.82 20.35-4.29 5.891-10.45 8.836-18.21 8.836-7.77 0-13.93-2.945-18.21-8.836-3.21-4.284-4.82-11.246-4.82-20.35zm-42.58-58.6408 12.32 45.7878 11.78-45.7878h17.68l-20.89 69.3518v47.127h-17.4v-47.127c-1.61-8.301-5.09-20.618-10.71-36.9521-3.75-10.7106-7.5-21.6891-11.25-32.3997zm193.33 283.0288c-3.21 13.656-14.46 23.831-27.85 25.438-31.86 3.481-64.26 3.481-96.39 3.481s-64.53 0-96.4-3.481c-13.39-1.607-24.63-11.514-27.85-25.438-4.55-19.547-4.55-40.968-4.55-61.05 0-20.083 0-41.504 4.55-61.051 3.22-13.656 14.46-23.831 27.85-25.438 31.87-3.481 64.27-3.481 96.4-3.481s64.53 0 96.39 3.481c13.39 1.607 24.64 11.514 27.85 25.438 4.55 19.547 4.55 40.7 4.55 61.051 0 20.082 0 41.503-4.55 61.05z" fill-rule="evenodd"/><path d="m169.2 338.401c-93.3422 0-169.2-75.858-169.2-169.2 0-93.3432 75.8578-169.201 169.2-169.201 93.343 0 169.201 75.8578 169.201 169.201 0 93.342-76.127 169.2-169.201 169.2zm0-280.8351c-61.6 0-111.6342 50.0341-111.6342 111.6351 0 61.6 50.0342 111.634 111.6342 111.634 61.601 0 111.635-50.034 111.635-111.634 0-61.601-50.034-111.6351-111.635-111.6351z"/><path d="m410.11 369.485-126.109-126.108-40.514 40.514 126.108 126.109z"/></g></svg>

<svg width="2074" height="422" viewBox="0 0 2074 422" fill="none" xmlns="http://www.w3.org/2000/svg">
<path fill-rule="evenodd" clip-rule="evenodd" d="M911.315 12.3171H609.81C576.874 12.3171 549.83 39.3615 549.83 72.2968V362.02C549.83 394.955 576.874 422 609.81 422H911.315C944.25 422 971.294 394.955 971.294 362.02V72.2968C971.294 39.3615 944.25 12.3171 911.315 12.3171ZM831.252 115.675H799.388C788.41 117.282 780.645 122.101 779.306 137.096V156.643H826.7V209.393H778.77V373.534H705.67V209.393H661.488V156.643H705.67V142.184L705.402 126.653C702.992 92.1116 728.966 67.7448 751.458 63.9961V63.7283H752.529C753.6 63.4606 754.403 63.4605 755.207 63.4605V63.7283H831.252V115.675V115.675Z" fill="white"/>
<path fill-rule="evenodd" clip-rule="evenodd" d="M1360.89 160.124H1390.35C1396.77 160.124 1402.13 154.769 1402.13 148.343V120.227C1402.13 113.801 1396.77 108.445 1390.35 108.445H1360.89C1354.47 108.445 1349.11 113.801 1349.11 120.227V148.343C1349.11 154.769 1354.47 160.124 1360.89 160.124Z" fill="white"/>
<path fill-rule="evenodd" clip-rule="evenodd" d="M1452.2 0H1150.7C1117.76 0 1090.72 27.0445 1090.72 59.9797V349.703C1090.72 382.638 1117.76 409.683 1150.7 409.683H1452.2C1485.14 409.683 1512.18 382.638 1512.18 349.703V59.9797C1512.18 27.0445 1485.14 0 1452.2 0ZM1431.58 306.86C1431.58 325.336 1416.59 340.331 1398.11 340.331H1204.25C1185.78 340.331 1170.78 325.336 1170.78 306.86V112.997C1170.78 94.5216 1185.78 79.5267 1204.25 79.5267H1398.11C1416.59 79.5267 1431.58 94.5216 1431.58 112.997V306.86Z" fill="white"/>
<path fill-rule="evenodd" clip-rule="evenodd" d="M1301.45 260.001C1330.37 260.001 1353.93 237.241 1353.93 209.393C1353.93 181.278 1330.37 158.786 1301.45 158.786C1272.53 158.786 1249.24 181.546 1249.24 209.393C1249.24 237.241 1272.53 260.001 1301.45 260.001Z" fill="white"/>
<path fill-rule="evenodd" clip-rule="evenodd" d="M1382.58 212.071C1382.58 255.449 1346.17 290.527 1301.45 290.527C1256.73 290.527 1220.32 255.449 1220.32 212.071C1220.32 204.306 1221.39 196.809 1223.8 189.579H1199.97V299.631C1199.97 305.254 1204.52 310.074 1210.41 310.074H1391.96C1397.58 310.074 1402.4 305.522 1402.4 299.631V189.579H1379.37C1381.51 196.809 1382.58 204.306 1382.58 212.071Z" fill="white"/>
<path d="M1807.26 236.973V220.64H1752.9V236.973H1771.11V336.047H1788.52V236.973H1807.26V236.973ZM1838.86 336.315V326.943C1832.7 333.905 1826.81 337.386 1821.18 337.386C1816.1 337.386 1812.62 335.244 1811.28 330.959C1810.47 328.282 1809.94 324.265 1809.94 318.107V250.094H1825.47V313.287C1825.47 317.035 1825.47 318.91 1825.74 319.445C1826 321.855 1827.34 323.194 1829.49 323.194C1832.7 323.194 1835.91 320.784 1839.39 315.964V250.362H1854.92V336.315H1838.86ZM1898.03 311.68C1898.03 319.445 1895.62 323.194 1891.34 323.194C1888.66 323.194 1886.25 321.855 1883.57 319.445V266.963C1886.25 264.286 1888.66 263.214 1891.34 263.214C1895.89 263.214 1898.03 267.231 1898.03 274.996V311.68ZM1913.56 310.341V276.067C1913.56 268.034 1913.03 262.143 1911.96 258.662C1909.82 252.236 1905.8 249.023 1899.37 249.023C1893.75 249.023 1888.39 252.236 1883.31 258.395V220.64H1867.78V336.047H1883.31V327.746C1888.39 334.173 1893.75 337.386 1899.37 337.386C1905.53 337.386 1909.82 334.173 1911.96 327.746C1913.03 323.997 1913.56 318.374 1913.56 310.341ZM1956.67 283.029H1941.14V274.996C1941.14 266.963 1943.82 262.947 1948.91 262.947C1954 262.947 1956.67 266.963 1956.67 274.996V283.029ZM1972.21 308.735V306.593H1956.41C1956.41 312.751 1956.14 316.232 1956.14 317.036C1955.34 321.32 1952.93 323.194 1949.18 323.194C1943.82 323.194 1941.14 319.178 1941.14 311.145V295.882H1972.21V278.209C1972.21 269.105 1970.6 262.411 1967.39 257.859C1963.1 251.968 1956.94 249.023 1948.91 249.023C1940.88 249.023 1934.72 251.968 1930.17 257.859C1926.95 262.143 1925.35 268.838 1925.35 278.209V308.467C1925.35 317.571 1926.95 324.265 1930.43 328.549C1934.99 334.44 1941.14 337.386 1949.18 337.386C1957.21 337.386 1963.64 334.44 1967.92 328.014C1969.8 325.336 1971.13 322.123 1971.67 318.642C1972.21 317.303 1972.21 313.822 1972.21 308.735Z" fill="white"/>
<path fill-rule="evenodd" clip-rule="evenodd" d="M1859.48 162.267C1864.56 162.267 1866.97 158.25 1866.97 150.217V113.801C1866.97 105.768 1864.56 101.751 1859.48 101.751C1854.39 101.751 1851.98 105.768 1851.98 113.801V150.217C1851.98 158.25 1854.39 162.267 1859.48 162.267Z" fill="white"/>
<path fill-rule="evenodd" clip-rule="evenodd" d="M2013.44 9.63965H1711.94C1679 9.63965 1651.96 36.684 1651.96 69.6193V359.075C1651.96 392.01 1679 419.055 1711.94 419.055H2013.44C2046.38 419.055 2073.42 392.01 2073.42 359.075V69.6193C2073.42 36.684 2046.38 9.63965 2013.44 9.63965ZM1895.36 88.0953H1911.15V152.091C1911.15 155.84 1911.15 157.714 1911.42 158.25C1911.69 160.66 1913.03 161.999 1915.17 161.999C1918.38 161.999 1921.6 159.589 1925.08 154.501V88.0953H1940.88V174.852H1925.08V165.48C1918.92 172.709 1912.76 176.19 1907.14 176.19C1902.05 176.19 1898.57 174.048 1896.96 169.764C1896.16 167.086 1895.62 163.07 1895.62 156.911V88.0953H1895.36ZM1836.18 117.014C1836.18 107.91 1837.79 100.948 1841 96.6637C1845.28 90.7729 1851.44 87.8275 1859.21 87.8275C1866.97 87.8275 1873.13 90.7729 1877.42 96.6637C1880.63 100.948 1882.24 107.91 1882.24 117.014V147.272C1882.24 156.376 1880.63 163.338 1877.42 167.622C1873.13 173.513 1866.97 176.458 1859.21 176.458C1851.44 176.458 1845.28 173.513 1841 167.622C1837.79 163.338 1836.18 156.376 1836.18 147.272V117.014ZM1793.6 58.3732L1805.92 104.161L1817.7 58.3732H1835.38L1814.49 127.725V174.852H1797.09V127.725C1795.48 119.424 1792 107.107 1786.38 90.7729C1782.63 80.0623 1778.88 69.0838 1775.13 58.3732H1793.6V58.3732ZM1986.93 341.402C1983.72 355.058 1972.47 365.233 1959.08 366.84C1927.22 370.321 1894.82 370.321 1862.69 370.321C1830.56 370.321 1798.16 370.321 1766.29 366.84C1752.9 365.233 1741.66 355.326 1738.44 341.402C1733.89 321.855 1733.89 300.434 1733.89 280.352C1733.89 260.269 1733.89 238.848 1738.44 219.301C1741.66 205.645 1752.9 195.47 1766.29 193.863C1798.16 190.382 1830.56 190.382 1862.69 190.382C1894.82 190.382 1927.22 190.382 1959.08 193.863C1972.47 195.47 1983.72 205.377 1986.93 219.301C1991.48 238.848 1991.48 260.001 1991.48 280.352C1991.48 300.434 1991.48 321.855 1986.93 341.402Z" fill="white"/>
<path d="M169.2 338.401C75.8578 338.401 0 262.543 0 169.201C0 75.8578 75.8578 0 169.2 0C262.543 0 338.401 75.8578 338.401 169.201C338.401 262.543 262.274 338.401 169.2 338.401ZM169.2 57.5659C107.6 57.5659 57.5658 107.6 57.5658 169.201C57.5658 230.801 107.6 280.835 169.2 280.835C230.801 280.835 280.835 230.801 280.835 169.201C280.835 107.6 230.801 57.5659 169.2 57.5659Z" fill="white"/>
<path d="M410.11 369.485L284.001 243.377L243.487 283.891L369.595 410L410.11 369.485Z" fill="white"/>
</svg>
